X:1
T:Title
%%score { ( 1 3 ) | 2 }
L:1/8
Q:1/4=100
M:4/4
K:Bb
V:1 treble nm="Grand Piano"
V:3 treble 
V:2 bass 
V:1
 [DF]2 [EG]2 [DF]2 [FB]>[FA] | G2 B2 F4 | F2[K:bass] ED [A,CE]2 [F,A,F]2 | [F,B,D]6 z2 | %4
w: Will~J.~Kirkpatrick * * * *||||
 [DF]2 [EG]>[EG] [DF]2 z F | [FB]2 c2 d4 | d2 cB c2 d2 | [DB]6 z2 | d2 d>d e2 d2 | G2 d2 c4 | %10
w: ||||||
 c2 c>c d2 c2 | F2 c2 [DB]4 | G2 GG [GB]2 [FA][EG] | [DF]2 [DB]2 [Fd]4 | d2 cB c2 d2 | [DB]6 z2 |] %16
w: ||||||
V:2
 [B,,B,]2 [B,,B,]2 [B,,B,]2 [D,B,]>[D,B,] | [E,B,E]2 [G,B,E]2 [B,D]4 | %2
 [F,B,D]2 [F,A,C][F,B,] F,,2 F,,2 | B,,6 z2 | [B,,B,]2 [B,,B,]>[B,,B,] [B,,B,]2 [B,,F,][B,,B,] | %5
 [D,B,]2[K:treble] [F,A,F]2 [B,F]4 | [F,B,F]2 [F,B,E][F,B,D] [F,A,E]2 [F,A,F]2 | [B,,B,]6 z2 | %8
 [B,F]2 [B,F]>[B,F] [B,G]2 [B,F]2 | [B,=E]2 [B,F]2[K:bass] [F,A,_E]4 | %10
 [F,A,E]2 [F,A,E]>[F,A,E] [F,A,F]2 [F,A,E]2 | [F,A,E]2 [F,A,E]2 [B,,B,]4 | %12
 [E,B,E]2 [E,B,E][E,B,E] [E,B,]2 [E,B,][E,B,] | [B,,B,]2 [B,,B,]2 [B,,B,]4 | %14
 [F,B,F]2 [F,B,E][F,B,D] [F,A,E]2 [F,A,F]2 | [B,,B,]6 z2 |] %16
V:3
 x8 | x8 | x2[K:bass] x6 | x8 | z4 z2 D2 | x8 | x8 | x8 | x8 | x8 | x8 | x8 | x8 | x8 | x8 | x8 |] %16

